X:96
T:score183
L:1/16
Q:1/4=96
M:2/4
I:linebreak $
K:C
 A2 zA (AcBA) | e2 zE (E^G^FE) | A2 zA (AcBA) | (e4 E2) z2 |$ a2 za (a_bag) | f2 zd (dfed) | %6
 g2 zg (gagf) | e2 zc (cedc) | f2 zB (BdcB) |$ e2 zA (AcBA) | F2 z^d (Ee=d).B | (A4 A,2) z2 |] %12
